X:1
T:Title
L:1/8
M:4/4
I:linebreak $
K:D
V:1 treble nm="Voice"
V:1
"D" ffdA F(dd)A |"G" B2 dB"A" (3ABc de |"D" ffdA F(dd)A |"G" BABc"D" d3 e |"D" ffdA F(dd)A | %5
"G" B2 dB"A" (3ABc de |"D" fdec dbag |1 fd"A"ec"D" d3 e :|2 fd"A"ec"D" d3 A |:"D" da-ae ffdf | %10
 abaf"A" eAdA |"D" df-fe ffdf | edBA (3ABc dA |"D" da-ae ffdf | abaf"A" eAde |"D" affe fded |1 %16
"A" cABc"D" d2 de :|2"A" cABc"D" d2 dA |] %18
